X:1286
T:Corn Riggs
O:england
M:4/4
L:1/8
R:Reel
K:A
E2|"A"A2 AB c2 BA|"E"GFGA B2 EF/G/|"A"A2 AB c>dB>c|"A"A2 e2 "E"e2 E2|"A"
A2 AB c2 BA|"E"GFGA B2 EE|"D"FGAF "E"BAGF|"A"E2 A2 A2:||:E2|"A"A2 e2 c2
e2|"E"GFGA B2 E2|"A"A2 e2 c>dB>c|"A"A2 e>f "E"e2 E2|"A"A2 e2"D"fedc|"Bm"
dcBA "E"GABE|"D"FGAF "E"BAGF|"A"E2 A2 A2:||


